X: 10283
M: 6/8
L: 1/8
K: D
|: a |\
afa afa | bgb  bgb | afa agf | eee efg |\
a3  f3  | e>de fdB | A2g faf | ddd d2 :|


